X:390
T:Shores of Lough Gowna
M:6/8
L:1/8
Q:120
R:Jig (Key of D)
K:D
"Bm"BdB BAF | "D"FEF DFA | "Bm"BdB BAF | "G"d2e "A"fed |
"Bm"BdB BAF | "D"FEF DFA | "Bm"def "G"gfg | "Bm"fdB B2A :|:
"D"def a2b | afb afe |dFA def | "G"~g3 "A"fdB |
"D"def a2b | afb afe | "Bm"def "G"gfg | "Bm"fdB B2A :|]
